UI/Core-UI/SVG/help_solid_16px.svg

<svg width="16" height="16" viewBox="0 0 16 16" fill="none" xmlns="http://www.w3.org/2000/svg">
<path d="M8 1C6.61553 1 5.26216 1.41054 4.11101 2.17971C2.95987 2.94888 2.06266 4.04213 1.53285 5.32122C1.00303 6.6003 0.86441 8.00776 1.13451 9.36563C1.4046 10.7235 2.07129 11.9708 3.05026 12.9497C4.02922 13.9287 5.2765 14.5954 6.63437 14.8655C7.99224 15.1356 9.3997 14.997 10.6788 14.4672C11.9579 13.9373 13.0511 13.0401 13.8203 11.889C14.5895 10.7378 15 9.38447 15 8C15 6.14348 14.2625 4.36301 12.9497 3.05025C11.637 1.7375 9.85652 1 8 1ZM9 12H7V10H9V12ZM10.73 6.66C10.6332 6.86441 10.4974 7.04788 10.33 7.2C10.1454 7.36525 9.94817 7.51572 9.74 7.65C9.52118 7.78725 9.3108 7.93752 9.11 8.1C9.00092 8.29801 8.96214 8.52713 9 8.75V9H7V8.69C6.98811 8.40143 7.04285 8.11399 7.16 7.85C7.24206 7.65371 7.37285 7.48161 7.54 7.35C7.78491 7.14153 8.04204 6.94786 8.31 6.77C8.47158 6.66524 8.62233 6.54464 8.76 6.41C8.80395 6.3633 8.8381 6.30827 8.86043 6.24816C8.88276 6.18804 8.89281 6.12406 8.89 6.06C8.89603 5.98601 8.88366 5.91169 8.854 5.84364C8.82434 5.77559 8.77831 5.71594 8.72 5.67C8.58006 5.56343 8.40513 5.51344 8.23 5.53C7.64 5.53 7.36 5.84 6.97 6.26L5.69 5.26C6.00924 4.85998 6.41588 4.53842 6.87871 4.32C7.34155 4.10159 7.84828 3.99212 8.36 4C8.83886 3.98665 9.31536 4.07174 9.76 4.25C10.1005 4.38957 10.3926 4.626 10.6 4.93C10.7984 5.20422 10.9099 5.53169 10.92 5.87C10.915 6.14403 10.8502 6.41366 10.73 6.66Z" fill="#0F1621"/>
</svg>

<svg xmlns="http://www.w3.org/2000/svg" width="16" height="16" viewBox="0 0 16 16"><rect width="16" height="16" style="fill:none"/><path d="M8,1a7,7,0,1,0,7,7A7,7,0,0,0,8,1ZM9,12H7V10H9Zm1.73-5.34a1.73,1.73,0,0,1-.4.54,4.72,4.72,0,0,1-.59.45,6.45,6.45,0,0,0-.63.45A1,1,0,0,0,9,8.75V9H7V8.69a1.88,1.88,0,0,1,.16-.84,1.25,1.25,0,0,1,.38-.5,8.09,8.09,0,0,1,.77-.58,2.9,2.9,0,0,0,.45-.36.48.48,0,0,0,.13-.35.45.45,0,0,0-.17-.39.7.7,0,0,0-.49-.14c-.59,0-.87.31-1.26.73l-1.28-1A3.35,3.35,0,0,1,8.36,4a3.5,3.5,0,0,1,1.4.25,1.88,1.88,0,0,1,.84.68,1.69,1.69,0,0,1,.32.94A1.88,1.88,0,0,1,10.73,6.66Z"/></svg>
